X: 17
T: Kom herom
B:[[Notböcker/Melodier til gamle danske Almuedanse for Violin solo]]
O:Danmark
Z:Søren Bak Vestergaard
M: 2/4
L: 1/8
K: D
Addd|dc/d/ e2|ceee|ed/e/ f2|dfff|\
fe/f/ g2|eA ce|e2 d2:| |:faaa|ag/a/ b2|\
eggg|gf/g/ a2|dfff|fe/f/ g2|eA ce|e2 d2:|

